src/main/resources/img/expui/filter/DatasetFilterEdit_dark.svg

<svg width="16" height="16" version="1.1" viewBox="0 0 16 16"  xmlns="http://www.w3.org/2000/svg"><path d="m14.412 8.295c-0.3905-0.39053-1.0237-0.39053-1.4142 0l-4.998 4.9979v2.7071h2.7071l4.998-4.9979c0.3905-0.3905 0.3905-1.0237 0-1.4142zm-0.4122 2.9979 0.998-0.9979-1.2929-1.2929-0.998 0.99792zm-2-0.5857 1.2929 1.2928-3 3h-1.2929v-1.2928z" clip-rule="evenodd" fill="#548af7" fill-rule="evenodd"/><path d="m2.5 2c-0.41944-1.75e-4 -0.6527 0.48502-0.39062 0.8125l3.8906 4.8633 2e-3 4.8223 0.998-0.99805v-4c8.5e-5 -0.11356-0.038489-0.22378-0.10938-0.3125l-3.3496-4.1875h8.918l-3.3496 4.1875c-0.07089 0.088725-0.10946 0.19894-0.10938 0.3125v2l1-1v-0.82422l3.8906-4.8633c0.26208-0.32748 0.02881-0.81268-0.39062-0.8125z" fill="#ced0d6"/></svg>

<svg width="16" height="16" xmlns="http://www.w3.org/2000/svg"><path d="M14.412 8.295a1 1 0 0 0-1.414 0L8 13.293V16h2.707l4.998-4.998a1 1 0 0 0 0-1.414zM14 11.293l.998-.998-1.293-1.293-.998.998zm-2-.586L13.293 12l-3 3H9v-1.293z" clip-rule="evenodd" fill="#548af7" fill-rule="evenodd"/><path d="M2.5 2a.5.5 0 0 0-.39.813L6 7.676l.002 4.822L7 11.5v-4a.5.5 0 0 0-.11-.312L3.542 3h8.918l-3.35 4.188A.5.5 0 0 0 9 7.5v2l1-1v-.824l3.89-4.863A.5.5 0 0 0 13.5 2z" fill="#ced0d6"/></svg>
